X:74
T:RVW2/2/74 The Saucy Sailor Boy
C:Sung by Mrs.Humphreys, Ingrave, Essex, 25 April 1904
L:1/8
Q:1/4=110
M:3/4
I:linebreak $
K:G
"^(Editorial suggestion)  " F>G | (AF) D2 AB | (cB) G2 cd | e2 d2 BB | A4 cd |$ e2 d2 BA | 
w: Come my|own _ one, come my|fond _ one, come my|dear- est un- to|me, Will you|wed with a poor|
dB G2 BB | c2 (DF) A2 | G4 |] 
w: sail- or lad just re-|tur- nï¿½d _ from|sea.|



